X:1
T:Amazing Grace
T:アメイジング・グレイス
T:William Walker in 1835
T:John Newton in 1772 訳詞：　山ノ本　竹志 
T:Amazing Grace
T:１．海に生まれ　旅を続けた みどり深き　森を抜け 幾千万の月日　重ねて 我ら人と　成りぬ 人間に生まれ　旅を続けた 果てなき高野　さまよい 幾千万の生き命　流れて 我ら　この地に在り 
T:２．恐れ知らぬ　愚かな旅人と 戦　憎しみ　涙 幾千万の試練　超えて 我ら　共に　立つ 恵み深き　みどりの大地 惑星よ　海よ　森よ 幾千万の生命　育み 救いたまえ　我ら 
T:幾千万の生命　照らして 共に　歩みたまえ 
T:Amazing Grace - Romaji - ローマ字 - アメイジンググレイス
T:1772
T:1772
T:1772
C:William Walker in 1835
Z:John Newton in 1772
Z:1772
L:1/8
Q:1/4=78
M:3/4
K:D
V:1 treble nm="Classical Guitar" snm="Guit."
V:1
"A7" A,D- |:"D" D4 (3(FE)D | F4 FE |"G" D3 B, B,A, |"D" A,4 A,D | D3- D (3(FE)D | F3- F EF | %7
w: う み|に う ー ま|れ た び|を つ づ け|た み ど|り ー ふ ー か|き ー も り|
w: |れ し ー ら|ぬ お ろ|かな た び び|と い く|さ に く ー し|み ー な み|
w: |||||||
"A7" A4- AA | A4 FA |"D" A4 (3(FE)D |"D7" F4 FE |"G" D3 B, B,A, |"D" A,4 A,D | D3- D (3(FE)D | %14
w: を ー ぬ|け い く|せーん ま ー ん|の つ き|ひ か さ ね|て わ れ|ら ー ひ ー と|
w: だ ー ー|ー い く|せーん ま ー ん|の し れ|ん こ え ー|て わ れ|ら ー と ー も|
w: |||||||
 F4"A7" ED |"D" D6- | D4"A7" A,D |"D" D4 (3(FE)D | F4 FE |"G" D3 B, B,A, |"D" A,4 A,D | %21
w: と な り|ぬ|ー ひ と|に う ー ま|れ た び|を つ づ け|た は て|
w: に た ー|つ|ー め ぐ|み ふ ー か|き み ど|り の だ い|ち ほ し|
w: |||||||
 D3- D (3(FE)D | F3- F EF |"A7" A4- AA | A4 |S FA |"D" A4 (3(FE)D |"D7" F4 FE |"G" D3 B, B,A, | %29
w: な き こ ー う|や さ ま よ|い ー ー|ー|い く|せーん ま ー ん|の い の|ち な が れ|
w: よ ー う ー み|よ ー も り|よ ー ー|ー|い く|せーん ま ー ん|の い の|ち は ぐ く|
w: ||||い く|せーん ま ー ん|の い の|ち て ら し|
"D" A,4 A,D | D3 D (3FED | F4"A7" (E"_"D)!dacoda! |1"D" D6- | D4"A7" A,D :|2"D" D6- | %35
w: て わ れ|ら こ の ー ち|に あ ー|り|ー お そ||
w: み す く|い ー た ー ま|え わ れ|||ら|
w: て と も|に ー あ ー ゆ|み た ま||||
 D4 z2!D.S.! ||O"D" D6 ||[M:3/4] z4 A,D |:"D" D4 (3(FE)D | F4 FE |"G" D3 B, B,A, |"D" A,4 A,D | %42
w: ||U- mi|ni u- * ma-|re ta- bi|wo tsu- dzu- ke-|ta mi- do-|
w: ー|||\-re shi- * ra-|nu o- ro-|kana ta- bi- bi-|to i- ku-|
w: |え||||||
 D3- D (3(FE)D | F3- F EF |"A7" A4- AA | A4 FA |"D" A4 (3(FE)D |"D7" F4 FE |"G" D3 B, B,A, | %49
w: ri _ fu- * ka-|ki _ mo- ri|wo _ nu-|ke i- ku|sen ma- * n|no tsu- ki-|hi ka- sa- ne-|
w: sa ni- ku- * shi-|mi _ na- mi-|da _ _|_ i- ku|sen ma- * n|no shi- re-|n ko- e- *|
w: |||||||
"D" A,4 A,D | D3- D (3(FE)D | F4"A7" ED |"D" D6- | D4"A7" A,D |"D" D4 (3(FE)D | F4 FE | %56
w: te wa- re-|ra _ hi- * to|to na- ri-|nu|_ Hi- to|ni u- * ma-|re ta- bi|
w: te wa- re-|ra _ to- * mo|ni ta- *|tsu|_ Me- gu-|mi fu- * ka-|ki mi- do-|
w: |||||||
"G" D3 B, B,A, |"D" A,4 A,D | D3- D (3(FE)D | F3- F EF |"A7" A4- AA | A4 |S FA |"D" A4 (3(FE)D | %64
w: wo tsu- dzu- ke-|ta ha- te-|na- ki ko- * u-|ya sa- ma yo-|i _ _|_|i- ku|sen ma- * n|
w: ri no da- i-|chi ho- shi|yo _ u- * mi|yo _ mo- ri|yo _ _|_|i- ku|sen ma- * n|
w: ||||||I- ku|sen ma- * n|
"D7" F4 FE |"G" D3 B, B,A, |"D" A,4 A,D | D3 D (3(FE)D | F4"A7" E"_""^"D!dacoda! |1"D" D6- | %70
w: no i- no-|chi na- ga- re-|te wa- re-|ra ko- no _ chi|ni a- *|ri|
w: no i- no-|chi ha- gu- ku-|mi su- ku-|i- * ta _ ma-|e wa- re\-||
w: no i- no-|chi te- ra- sh-|te to- mo|ni _ a- * yu-|mi- ta- ma\-||
 D4"A7" A,D :|2"D" D6- | D4 z2!D.S.! ||O"D" D6 |] %74
w: _ A- so\-||||
w: |\-ra|_||
w: |||\-e|

